X: 52
T: Fang yang
L: 1/16
M: 1/4
K: G
A2 A2 B A B d [I:setbarnb 1]| 
d B A BA4 | 
B2 B d e f e d | 
B2 A E2< G2 A | 
B2 B A | 
[M:2/4]d8 | 
B2 B d e f e d | 
B2 A E2< G2 A | 
B B A G F E2 B, | 
D8 | 
B2 B d e f e d | 
B2 A E2< G2 A | 
B B A G F E2 A, | 
D8 |]

@@@ Tune index: 8926
